Simply-Orange-Circles/scalable/apps/distributor-logo-korora.svg

<svg xmlns="http://www.w3.org/2000/svg" width="48" height="48" viewBox="0 0 12.7 12.7"><path d="M6.34.07a6.29 6.29 0 0 0-6.29 6.3 6.29 6.29 0 0 0 6.3 6.28 6.29 6.29 0 0 0 6.28-6.29A6.29 6.29 0 0 0 6.34.07zM6.32 1l.01.01a5.4 5.4 0 0 1 5.4 5.4 5.4 5.4 0 0 1-5.4 5.41 5.4 5.4 0 0 1-5.41-5.4A5.4 5.4 0 0 1 6.32 1zm1.06 1.8c-1.28 0-2.33.95-2.5 2.18a2.52 2.52 0 0 0-2.19 2.5v2.16c0 .2.17.37.37.37h2.16c1.28 0 2.33-.96 2.5-2.2a2.52 2.52 0 0 0 2.19-2.5V3.16c0-.2-.16-.36-.36-.36H7.38zm0 .72h1.8v1.8c0 .88-.63 1.6-1.47 1.76a2.52 2.52 0 0 0-2.1-2.09 1.8 1.8 0 0 1 1.77-1.47zM5.22 5.68a1.8 1.8 0 1 1 0 3.6h-1.8v-1.8c0-1 .8-1.8 1.8-1.8z" fill="#ff7f2a"/></svg>

<?xml version="1.0" encoding="UTF-8" standalone="no"?>
<svg
   xmlns:dc="http://purl.org/dc/elements/1.1/"
   xmlns:cc="http://creativecommons.org/ns#"
   xmlns:rdf="http://www.w3.org/1999/02/22-rdf-syntax-ns#"
   xmlns:svg="http://www.w3.org/2000/svg"
   xmlns="http://www.w3.org/2000/svg"
   xmlns:sodipodi="http://sodipodi.sourceforge.net/DTD/sodipodi-0.dtd"
   xmlns:inkscape="http://www.inkscape.org/namespaces/inkscape"
   width="48"
   height="48"
   viewBox="0 0 12.7 12.7"
   version="1.1"
   id="svg4"
   sodipodi:docname="distributor-logo-korora.svg"
   inkscape:version="0.92.4 (5da689c313, 2019-01-14)">
  <metadata
     id="metadata10">
    <rdf:RDF>
      <cc:Work
         rdf:about="">
        <dc:format>image/svg+xml</dc:format>
        <dc:type
           rdf:resource="http://purl.org/dc/dcmitype/StillImage" />
        <dc:title></dc:title>
      </cc:Work>
    </rdf:RDF>
  </metadata>
  <defs
     id="defs8" />
  <sodipodi:namedview
     pagecolor="#ffffff"
     bordercolor="#666666"
     borderopacity="1"
     objecttolerance="10"
     gridtolerance="10"
     guidetolerance="10"
     inkscape:pageopacity="0"
     inkscape:pageshadow="2"
     inkscape:window-width="1087"
     inkscape:window-height="480"
     id="namedview6"
     showgrid="false"
     inkscape:zoom="4.9166667"
     inkscape:cx="2.1355932"
     inkscape:cy="24"
     inkscape:window-x="0"
     inkscape:window-y="25"
     inkscape:window-maximized="0"
     inkscape:current-layer="svg4" />
  <path
     d="M 6.34,0.07 A 6.29,6.29 0 0 0 0.05,6.37 6.29,6.29 0 0 0 6.35,12.65 6.29,6.29 0 0 0 12.63,6.36 6.29,6.29 0 0 0 6.34,0.07 Z M 6.32,1 6.33,1.01 a 5.4,5.4 0 0 1 5.4,5.4 5.4,5.4 0 0 1 -5.4,5.41 A 5.4,5.4 0 0 1 0.92,6.42 5.4,5.4 0 0 1 6.32,1 Z M 7.38,2.8 C 6.1,2.8 5.05,3.75 4.88,4.98 a 2.52,2.52 0 0 0 -2.19,2.5 v 2.16 c 0,0.2 0.17,0.37 0.37,0.37 h 2.16 c 1.28,0 2.33,-0.96 2.5,-2.2 A 2.52,2.52 0 0 0 9.91,5.31 V 3.16 C 9.91,2.96 9.75,2.8 9.55,2.8 Z m 0,0.72 h 1.8 v 1.8 c 0,0.88 -0.63,1.6 -1.47,1.76 A 2.52,2.52 0 0 0 5.61,4.99 1.8,1.8 0 0 1 7.38,3.52 Z M 5.22,5.68 a 1.8,1.8 0 1 1 0,3.6 h -1.8 v -1.8 c 0,-1 0.8,-1.8 1.8,-1.8 z"
     id="path2"
     inkscape:connector-curvature="0"
     style="fill:#ff7f2a" />
</svg>
